.local/share/icons/Gruvbox-Plus-Dark/mimetypes/scalable/application-sweethome3d.svg

<svg width="256" height="256" viewBox="0 0 256 256" fill="none" xmlns="http://www.w3.org/2000/svg">
<g opacity="0.4" filter="url(#filter0_f)">
<path d="M55.0839 15.5636H155.608L216.009 75.7129L216.011 224.609C216.011 233.52 208.749 240.737 199.838 240.737H55.0838C46.1734 240.737 39 233.564 39 224.654V31.6474C39 22.737 46.1734 15.5636 55.0838 15.5636H55.0839Z" fill="#282828"/>
</g>
<path d="M55.0839 15H155.608L216.009 75.1493L216.011 224.045C216.011 232.956 208.749 240.174 199.838 240.174H55.0838C46.1734 240.174 39 233 39 224.09V31.0838C39 22.1734 46.1734 15 55.0838 15H55.0839Z" fill="#ebdbb2"/>
<path fill-rule="evenodd" clip-rule="evenodd" d="M155.608 20.3191H55.0839C49.1112 20.3191 44.3191 25.1111 44.3191 31.0838V224.09C44.3191 230.063 49.1111 234.855 55.0838 234.855H199.838C205.83 234.855 210.692 229.999 210.692 224.046V75.1493L155.608 20.3191ZM155.608 15H55.0839C46.1735 15 39 22.1734 39 31.0838V224.09C39 233 46.1734 240.174 55.0838 240.174H199.838C208.749 240.174 216.011 232.956 216.011 224.045L216.009 75.1493L155.608 15Z" fill="url(#paint0_linear)"/>
<path d="M128.117 68.0037C125.613 67.9451 123.141 68.5767 120.972 69.8299L80.8213 93.0085C76.6001 95.4458 74 99.9494 74 104.824V151.18C74.0041 154.378 75.1312 157.474 77.1844 159.925L127.794 118.999L178.395 159.925C180.451 157.474 181.581 154.38 181.587 151.18V104.824C181.591 99.947 178.99 95.4393 174.766 93.0004L134.615 69.8299C132.636 68.6865 130.402 68.0583 128.117 68.0037ZM77.1844 159.925C77.4749 160.274 77.7825 160.608 78.1056 160.927C77.7825 160.608 77.4749 160.274 77.1844 159.925V159.925ZM78.1056 160.927C78.3685 161.18 78.6403 161.423 78.9219 161.654C78.6403 161.423 78.3685 161.18 78.1056 160.927ZM178.379 159.949C177.655 160.816 176.828 161.59 175.914 162.252C176.828 161.59 177.655 160.816 178.379 159.949ZM126.112 187.896C127.016 188.008 127.929 188.029 128.836 187.96C127.929 188.029 127.016 188.008 126.112 187.896Z" fill="url(#paint1_linear)"/>
<path opacity="0.3" d="M127.794 68.0111C125.4 68.0062 123.048 68.6304 120.972 69.8218L80.8213 93.0085C76.6001 95.4458 74 99.9494 74 104.824V151.18C74.0041 154.378 75.1312 157.474 77.1844 159.925L127.794 118.999V68.0111ZM77.1844 159.925C77.4749 160.274 77.7825 160.608 78.1056 160.927C77.7825 160.608 77.4749 160.274 77.1844 159.925ZM78.1056 160.927C78.3685 161.18 78.6403 161.423 78.9219 161.654C78.6403 161.423 78.3685 161.18 78.1056 160.927Z" fill="#282828"/>
<path d="M127.795 119.002L77.1811 159.928C78.2065 161.155 79.4394 162.193 80.8237 162.993L120.971 186.171C125.194 188.61 130.396 188.61 134.618 186.171L174.765 162.993C176.146 162.19 177.375 161.15 178.396 159.922L127.795 119.002Z" fill="url(#paint2_linear)"/>
<path d="M127.794 90.7169L160.07 108.931V145.359L127.794 163.573L95.5177 145.359V108.931L127.794 90.7169Z" fill="url(#paint3_linear)"/>
<path opacity="0.3" d="M160.07 108.931L127.794 127.145V163.573L160.07 145.359V108.931Z" fill="#282828" fill-opacity="0.2"/>
<path d="M95.5177 108.931V145.359L127.794 163.573V127.145L95.5177 108.931Z" fill="#282828" fill-opacity="0.3"/>
<path opacity="0.25" d="M155.608 17V61.2306C155.608 70.141 162.867 77.1605 171.777 77.1605L216.009 77.1493V75.1493L155.608 17Z" fill="#282828"/>
<path d="M155.608 15V59.2306C155.608 68.141 162.867 75.1605 171.777 75.1605L216.009 75.1493L155.608 15Z" fill="url(#paint4_linear)"/>
<defs>
<filter id="filter0_f" x="23.8778" y="0.441412" width="207.255" height="255.418" filterUnits="userSpaceOnUse" color-interpolation-filters="sRGB">
<feFlood flood-opacity="0" result="BackgroundImageFix"/>
<feBlend mode="normal" in="SourceGraphic" in2="BackgroundImageFix" result="shape"/>
<feGaussianBlur stdDeviation="7.5611" result="effect1_foregroundBlur"/>
</filter>
<linearGradient id="paint0_linear" x1="127.506" y1="240.176" x2="127.506" y2="14.9981" gradientUnits="userSpaceOnUse">
<stop stop-color="#fb4934"/>
<stop offset="0.1" stop-color="#fb4934"/>
<stop offset="1" stop-color="#fe8019"/>
</linearGradient>
<linearGradient id="paint1_linear" x1="127.793" y1="67.9997" x2="127.793" y2="188" gradientUnits="userSpaceOnUse">
<stop stop-color="#83a598"/>
<stop offset="1" stop-color="#458588"/>
</linearGradient>
<linearGradient id="paint2_linear" x1="77.1811" y1="119.002" x2="77.1811" y2="188" gradientUnits="userSpaceOnUse">
<stop stop-color="#fabd2f"/>
<stop offset="0.5" stop-color="#fe8019"/>
<stop offset="1" stop-color="#fe8019"/>
</linearGradient>
<linearGradient id="paint3_linear" x1="95.5177" y1="90.7169" x2="95.5177" y2="163.572" gradientUnits="userSpaceOnUse">
<stop stop-color="#fb4934"/>
<stop offset="1" stop-color="#cc241d"/>
</linearGradient>
<linearGradient id="paint4_linear" x1="185.435" y1="14.977" x2="185.585" y2="75.3591" gradientUnits="userSpaceOnUse">
<stop stop-color="#fe8019"/>
<stop offset="1" stop-color="#cc241d"/>
</linearGradient>
</defs>
</svg>

<svg width="256" height="256" fill="none" version="1.1" viewBox="0 0 256 256" xmlns="http://www.w3.org/2000/svg">
  <path d="m55.08 15h100.5l60.4 60.15 2e-3 148.9c0 8.911-7.262 16.13-16.17 16.13h-144.8c-8.91 0-16.08-7.174-16.08-16.08v-193c0-8.91 7.173-16.08 16.08-16.08h1e-4z" fill="#ebdbb2"/>
  <path d="m155.6 20.32h-100.5c-5.973 0-10.76 4.792-10.76 10.76v193c0 5.973 4.792 10.76 10.76 10.76h144.8c5.992 0 10.85-4.856 10.85-10.81v-148.9l-55.08-54.83zm0-5.319h-100.5c-8.91 0-16.08 7.173-16.08 16.08v193c0 8.91 7.173 16.08 16.08 16.08h144.8c8.911 0 16.17-7.218 16.17-16.13l-2e-3 -148.9-60.4-60.15z" clip-rule="evenodd" fill="url(#paint0_linear)" fill-rule="evenodd"/>
  <path d="m128.1 68c-2.504-0.0586-4.976 0.573-7.145 1.826l-40.15 23.18c-4.221 2.437-6.821 6.941-6.821 11.82v46.36c0.0041 3.198 1.131 6.294 3.184 8.745l50.61-40.93 50.6 40.93c2.056-2.451 3.186-5.545 3.192-8.745v-46.36c4e-3 -4.877-2.597-9.385-6.821-11.82l-40.15-23.17c-1.979-1.143-4.213-1.772-6.498-1.826zm-50.93 91.92c0.2905 0.349 0.5981 0.683 0.9212 1.002-0.3231-0.319-0.6307-0.653-0.9212-1.002zm0.9212 1.002c0.2629 0.253 0.5347 0.496 0.8163 0.727-0.2816-0.231-0.5534-0.474-0.8163-0.727zm100.3-0.978c-0.724 0.867-1.551 1.641-2.465 2.303 0.914-0.662 1.741-1.436 2.465-2.303zm-52.27 27.95c0.904 0.112 1.817 0.133 2.724 0.064-0.907 0.069-1.82 0.048-2.724-0.064z" fill="url(#paint1_linear)"/>
  <path d="m127.8 68.01c-2.394-0.0049-4.746 0.6193-6.822 1.811l-40.15 23.19c-4.221 2.437-6.821 6.941-6.821 11.82v46.36c0.0041 3.198 1.131 6.294 3.184 8.745l50.61-40.93v-50.99zm-50.61 91.91c0.2905 0.349 0.5981 0.683 0.9212 1.002-0.3231-0.319-0.6307-0.653-0.9212-1.002zm0.9212 1.002c0.2629 0.253 0.5347 0.496 0.8163 0.727-0.2816-0.231-0.5534-0.474-0.8163-0.727z" fill="#282828" opacity=".3"/>
  <path d="m127.8 119-50.61 40.93c1.025 1.227 2.258 2.265 3.643 3.065l40.15 23.18c4.223 2.439 9.425 2.439 13.65 0l40.15-23.18c1.381-0.803 2.61-1.843 3.631-3.071l-50.6-40.92z" fill="url(#paint2_linear)"/>
  <path d="m127.8 90.72 32.28 18.21v36.43l-32.28 18.21-32.28-18.21v-36.43l32.28-18.21z" fill="url(#paint3_linear)"/>
  <path d="m160.1 108.9-32.28 18.21v36.43l32.28-18.21v-36.43z" fill="#282828" fill-opacity=".2" opacity=".3"/>
  <path d="m95.52 108.9v36.43l32.28 18.21v-36.43l-32.28-18.21z" fill="#282828" fill-opacity=".3"/>
  <path d="m155.6 17v44.23c0 8.91 7.259 15.93 16.17 15.93l44.23-0.0112v-2l-60.4-58.15z" fill="#282828" opacity=".25"/>
  <path d="m155.6 15v44.23c0 8.91 7.259 15.93 16.17 15.93l44.23-0.0112-60.4-60.15z" fill="url(#paint4_linear)"/>
  <defs>
    <linearGradient id="paint0_linear" x1="127.5" x2="127.5" y1="240.2" y2="15" gradientUnits="userSpaceOnUse">
      <stop stop-color="#fb4934" offset="0"/>
      <stop stop-color="#fb4934" offset=".1"/>
      <stop stop-color="#fe8019" offset="1"/>
    </linearGradient>
    <linearGradient id="paint1_linear" x1="127.8" x2="127.8" y1="68" y2="188" gradientUnits="userSpaceOnUse">
      <stop stop-color="#83a598" offset="0"/>
      <stop stop-color="#458588" offset="1"/>
    </linearGradient>
    <linearGradient id="paint2_linear" x1="77.18" x2="77.18" y1="119" y2="188" gradientUnits="userSpaceOnUse">
      <stop stop-color="#fabd2f" offset="0"/>
      <stop stop-color="#fe8019" offset=".5"/>
      <stop stop-color="#fe8019" offset="1"/>
    </linearGradient>
    <linearGradient id="paint3_linear" x1="95.52" x2="95.52" y1="90.72" y2="163.6" gradientUnits="userSpaceOnUse">
      <stop stop-color="#fb4934" offset="0"/>
      <stop stop-color="#cc241d" offset="1"/>
    </linearGradient>
    <linearGradient id="paint4_linear" x1="185.4" x2="185.6" y1="14.98" y2="75.36" gradientUnits="userSpaceOnUse">
      <stop stop-color="#fe8019" offset="0"/>
      <stop stop-color="#cc241d" offset="1"/>
    </linearGradient>
  </defs>
</svg>
